!!!COM: Palestrina, Giovanni Perluigi da
!!!OPR: Pater noster
!!!OTL: Gloria
**kern	**kern	**kern	**kern
*Ibass	*Itenor	*Icalto	*Icant
!Bassus	!Tenor	!Altus	!Cantus
*clefF4	*clefGv2	*clefG2	*clefG2
*k[]	*k[]	*k[]	*k[]
*D:dor	*D:dor	*D:dor	*D:dor
*M4/2	*M4/2	*M4/2	*M4/2
=1	=1	=1	=1
0r	0r	1f	0r
.	.	1g	.
=2	=2	=2	=2
0r	0r	2a	1cc
.	.	2a	.
.	.	2.b-	1dd
.	.	4a	.
=3	=3	=3	=3
0r	1c	2g	2ee
.	.	1a	2ee
.	1d	.	1ff
.	.	4g	.
.	.	4f	.
=4	=4	=4	=4
0r	2e	1g	2.ee
.	2e	.	.
.	.	.	4dd
.	[1f	1a	2cc
.	.	.	[2dd
=5	=5	=5	=5
1F	2f]	1a	4dd]
.	.	.	4cc
.	2e	.	1cc
1G	2d	2.g	.
.	2d	.	2b
.	.	4f	.
=6	=6	=6	=6
2A	1c	2e	4cc
.	.	.	4dd
2A	.	2a	4ee
.	.	.	4ff
[1B-	2r	2f	2.dd
.	[2d	2g	.
.	.	.	4ee
=7	=7	=7	=7
2B-]	2d]	4f	1ff
.	.	4g	.
2A	2c	4a	.
.	.	4f	.
2G	2.d	1b-	2r
2G	.	.	[2dd
.	4e	.	.
=8	=8	=8	=8
1F	1.f	1.a	2dd]
.	.	.	2cc
1r	.	.	2dd
.	2e	2g	[2ee
=9	=9	=9	=9
1r	2f	2a	2ee]
.	2g	2b-	1dd
[1A	1e	2.a	.
.	.	.	4cc
.	.	4g	4b-
=10	=10	=10	=10
2A]	2r	2f	4cc
.	.	.	4a
2G	1d	4g	2b-
.	.	4f	.
1A	.	4e	2.a
.	.	4A	.
.	2c	[2a	.
.	.	.	4g
=11	=11	=11	=11
1B-	2d	4a]	4f
.	.	4g	4d
.	2d	2g	1dd
1A	1e	2.a	.
.	.	.	2cc#
.	.	4g	.
=12	=12	=12	=12
0D	2d	2.f	0dd
.	2d	.	.
.	.	4e	.
.	[1f	1d	.
=13	=13	=13	=13
1A	2f]	1c	0r
.	2e	.	.
[1c	1e	1r	.
=14	=14	=14	=14
2c]	1d	0r	0r
2B	.	.	.
2A	1e	.	.
2G	.	.	.
=15	=15	=15	=15
2A	2.e	0r	1r
2.c	.	.	.
.	4e	.	.
.	1d	.	2r
4B	.	.	.
2B	.	.	2dd
=16	=16	=16	=16
1c	2c	2r	1ee
.	2e	2g	.
1r	1d	1a	[1ff
=17	=17	=17	=17
0r	1.a	1.cc	2ff]
.	.	.	2ee
.	.	.	1ee
.	2e	2b	.
=18	=18	=18	=18
0r	2g	2b	1dd
.	2f	2a	.
.	2e	2b	[1ee
.	2A	2cc	.
=19	=19	=19	=19
0r	4c	2g	2ee]
.	4d	.	.
.	4e	2.cc	2ee
.	4f	.	.
.	2g	.	2dd
.	.	8b	.
.	.	8a	.
.	2g	2b	2dd
=20	=20	=20	=20
2r	2c	2cc	2cc
1c	1g	1cc	1ee
2c	2g	2cc	2ee
=21	=21	=21	=21
1G	1g	1b	1dd
1F	1a	1cc	1ff
=22	=22	=22	=22
2F	2a	2cc	2ff
2C	2g	2cc	2ee
1D	1f	1a	1dd
=23	=23	=23	=23
2A	1e	0a	0cc#
1A	.	.	.
.	2r	.	.
2A	[2e	.	.
=24	=24	=24	=24
2G	2e]	0r	0r
2G	2e	.	.
2.B-	2d	.	.
.	2d	.	.
4B-	.	.	.
=25	=25	=25	=25
2A	2.f	1.a	1r
4F	.	.	.
4G	4f	.	.
4A	2e	.	2r
4G	.	.	.
4A	4c	2a	[2ee
4B	4d	.	.
=26	=26	=26	=26
1c	4e	2g	2ee]
.	4d	.	.
.	4e	2g	2ee
.	4f	.	.
1G	1g	2.b-	2dd
.	.	.	2dd
.	.	4b-	.
=27	=27	=27	=27
0r	2.d	2a	1ff
.	.	4f	.
.	4e	4g	.
.	4f	4a	2ff
.	4g	4b	.
.	4a	[2cc	2ee
.	4g	.	.
=28	=28	=28	=28
1r	2f	2cc]	1dd
.	2g	2b	.
2r	1c	2g	2cc
[2A	.	2a	[2cc
=29	=29	=29	=29
4A]	2r	2.e	4cc]
4A	.	.	4cc
2A	2.e	.	2cc
.	.	4f	.
2G	.	1g	2.b
.	4e	.	.
2G	2e	.	.
.	.	.	4cc
=30	=30	=30	=30
2B-	2d	1f	1dd
2B-	2d	.	.
2.A	2f	2r	1cc
.	[2e	[2a	.
4G	.	.	.
=31	=31	=31	=31
2.F	4e]	4a]	0r
.	4d	4a	.
.	1d	2a	.
8E	.	.	.
8D	.	.	.
1E	.	2g	.
.	2c#	2g	.
=32	=32	=32	=32
4D	1d	2b-	1r
4E	.	.	.
4F	.	2.a	.
4G	.	.	.
1A	[1c	.	2r
.	.	4g	.
.	.	4e	[2ee
.	.	4f	.
=33	=33	=33	=33
0r	2c]	2g	4ee]
.	.	.	4ee
.	4B	1a	2ee
.	4A	.	.
.	1B	.	2dd
.	.	2g#	2dd
=34	=34	=34	=34
2r	1A	2.a	2ff
1A	.	.	4ee
.	.	4b	4dd
.	2r	2cc	2ee
2G	[2d	2b	2gg
=35	=35	=35	=35
1A	2d]	2r	2ff
.	2c	1a	2ee
1B-	1d	.	2r
.	.	2g	[2dd
=36	=36	=36	=36
1A	1e	1a	2dd]
.	.	.	2cc
2.G	1g	1b-	2dd
.	.	.	2dd
4F	.	.	.
=37	=37	=37	=37
4D	1.f	0a	2.ff
4E	.	.	.
4F	.	.	.
4G	.	.	4ee
4A	.	.	4cc
4B	.	.	4dd
2c	2e	.	[2ee
=38	=38	=38	=38
2d	2.f	1a	2ee]
2D	.	.	1dd
.	8e	.	.
.	8d	.	.
1A	1e	2.a	.
.	.	.	2cc#
.	.	4a	.
=39	=39	=39	=39
2.D	2r	1f	2.dd
.	2d	.	.
4D	.	.	8cc
.	.	.	8b-
1F	2c	2r	1a
.	2d	2a	.
=40	=40	=40	=40
1C	1e	2g	1r
.	.	2a	.
1G	1d	1b-	2r
.	.	.	2dd
=41	=41	=41	=41
0r	2.f	1.a	2cc
.	.	.	2dd
.	8e	.	.
.	8d	.	.
.	4c	.	1ee
.	4d	.	.
.	2e	2g	.
=42	=42	=42	=42
0r	2f	2a	1dd
.	1g	1b	.
.	.	.	2dd
.	2g	[2a	2cc
=43	=43	=43	=43
1r	0e	2a]	2b
.	.	2g#	2b
[1A	.	1a	1cc
=44	=44	=44	=44
1A]	0e	1cc	1a
1G#	.	1b	1b
=45	=45	=45	=45
1.A	1e	0a	[0cc
.	[1f	.	.
2B	.	.	.
=46	=46	=46	=46
0c	2f]	0g	0cc]
.	4e	.	.
.	4d	.	.
.	1e	.	.
=47	=47	=47	=47
2.F	2f	2r	1a
.	2.d	2.f	.
4G	.	.	.
1A	.	.	2r
.	4d	4f	.
.	2c	2e	[2a
=48	=48	=48	=48
0r	2d	2f	4a]
.	.	.	4a
.	2e	2e	2g
.	[1f	2d	2a
.	.	4c	2b
.	.	4B	.
=49	=49	=49	=49
0r	2f]	2A	1.cc
.	2e	2c	.
.	1d	1G	.
.	.	.	2b
=50	=50	=50	=50
2r	2.c	1A	2.a
2.A	.	.	.
.	4d	.	4b
.	[1e	1r	4cc
4A	.	.	4dd
2G	.	.	[2ee
=51	=51	=51	=51
2A	1e]	1r	2ee]
2B	.	.	2dd
[1c	2e	2r	1ee
.	2A	[2a	.
=52	=52	=52	=52
2c]	2c	2a]	2r
2B	2d	2g	1dd
1A	1e	1a	.
.	.	.	2cc
=53	=53	=53	=53
2G	0r	1b-	1dd
1d	.	.	.
.	.	1a	1ee
2c#	.	.	.
=54	=54	=54	=54
1d	2r	2.f	2dd
.	1d	.	1ff
.	.	4g	.
1r	.	4a	.
.	.	4b	.
.	2c	2cc	2ee
=55	=55	=55	=55
0r	1d	2b	2.dd
.	.	2.a	.
.	.	.	4cc
.	1e	.	1b
.	.	4g	.
.	.	2g	.
=56	=56	=56	=56
2r	2d	4f	2.dd
.	.	4e	.
1D	1f	4d	.
.	.	4e	4cc
.	.	4f	4a
.	.	4d	4b
2C	2e	[2g	2cc
=57	=57	=57	=57
1D	2.d	2g]	2b
.	.	2f	1a
.	4c	.	.
1E	1B	1e	.
.	.	.	2g#
=58	=58	=58	=58
2.D	0d	0f	[0a
4C#	.	.	.
4D	.	.	.
4E	.	.	.
4F	.	.	.
4G	.	.	.
=59	=59	=59	=59
0A	0c#	0e	0a]
=60	=60	=60	=60
1F	0r	0r	0r
1G	.	.	.
=61	=61	=61	=61
1A	1c	0r	0r
2r	1d	.	.
2G	.	.	.
=62	=62	=62	=62
2G	1e	1r	0r
2A	.	.	.
2.B-	2r	1f	.
.	2d	.	.
4A	.	.	.
=63	=63	=63	=63
1G	2d	1g	1r
.	2e	.	.
1F	2.f	1a	1cc
.	4e	.	.
=64	=64	=64	=64
0r	1d	2r	1dd
.	.	2f	.
.	1c	2g	1ee
.	.	2a	.
=65	=65	=65	=65
0r	2.G	2.b-	2r
.	.	.	2dd
.	4A	4a	.
.	2B	1g	2dd
.	2c#	.	2ee
=66	=66	=66	=66
0r	2d	2f	2.ff
.	1f	1a	.
.	.	.	4ee
.	.	.	1dd
.	2d	2f	.
=67	=67	=67	=67
1r	2e	2g	1cc
.	1f	1a	.
[1A	.	.	[1cc
.	4e	4g	.
.	4d	4f	.
=68	=68	=68	=68
2A]	2c	2e	2cc]
2F	1d	1f	2a
2G	.	.	2b
2A	4c	[2e	[2cc
.	4B	.	.
=69	=69	=69	=69
1F	1A	2e]	2cc]
.	.	2d	4b
.	.	.	4a
1E	1B	1e	4g#
.	.	.	2a
.	.	.	4g#
=70	=70	=70	=70
2.F	2A	1r	1.a
.	2c	.	.
4E	.	.	.
1D	1d	1f	.
.	.	.	2b
=71	=71	=71	=71
1C	1e	1g	1cc
1r	2d	[1a	1r
.	[2f	.	.
=72	=72	=72	=72
0r	2f]	2a]	1cc
.	2e	2g	.
.	1d	2b-	1dd
.	.	[2a	.
=73	=73	=73	=73
0r	1c	2a]	1ee
.	.	1g	.
.	2G	.	1dd
.	[2B-	4f	.
.	.	4e	.
=74	=74	=74	=74
0r	2B-]	4d	1.ff
.	.	4e	.
.	4A	4f	.
.	4G	4g	.
.	4F	4a	.
.	4G	4b	.
.	2A	[2cc	2ee
=75	=75	=75	=75
1r	2F	2cc]	1dd
.	2G	2b	.
2r	2A	1cc	1cc
[2c	[2e	.	.
=76	=76	=76	=76
2c]	2e]	0g	2r
2c	2e	.	1cc
[1c	[1e	.	.
.	.	.	2cc
=77	=77	=77	=77
2c]	1e]	1g	1cc
4B	.	.	.
4A	.	.	.
1G	2r	2.g	1b
.	[2d	.	.
.	.	4f	.
=78	=78	=78	=78
1A	2d]	2e	1a
.	2c	1a	.
1B-	1d	.	2r
.	.	2g	[2dd
=79	=79	=79	=79
2A	1e	2a	2dd]
2A	.	2a	2cc
2d	2f	2b-	2dd
2c#	[2e	2a	2ee
=80	=80	=80	=80
2.d	2e]	0a	1.ff
.	2.d	.	.
8c	.	.	.
8B	.	.	.
1A	.	.	.
.	4c	.	.
.	4c	.	2ee
.	8d	.	.
.	8e	.	.
=81	=81	=81	=81
1D	1f	[0a	1dd
1A	1e	.	1cc#
=82	=82	=82	=82
2r	2r	1a]	2r
2A	2e	.	2cc#
1d	1f	2r	1dd
.	.	2f	.
=83	=83	=83	=83
1c	4e	1g	1.ee
.	4d	.	.
.	4c	.	.
.	4B	.	.
1r	1A	1a	.
.	.	.	2ff
=84	=84	=84	=84
0r	2G	2b	2.gg
.	1c	2.cc	.
.	.	.	4ff
.	.	.	2ee
.	.	4b	.
.	2d	2a	[2ff
=85	=85	=85	=85
1r	2e	2.g	4ff]
.	.	.	4ee
.	2c	.	1ee
.	.	4a	.
2r	1d	1f	.
[2d	.	.	2dd
=86	=86	=86	=86
2d]	1A	2e	1ee
2c	.	1a	.
2A	1r	.	1r
2B	.	2g	.
=87	=87	=87	=87
2c	0r	2e	2r
4B	.	2.g	1dd
4A	.	.	.
2G	.	.	.
.	.	4f	.
[2A	.	4e	2cc
.	.	4d	.
=88	=88	=88	=88
2A]	1r	4c	2a
.	.	4A	.
4G	.	1d	2b
4F	.	.	.
1E	2r	.	2.g
.	[2g	2c#	.
.	.	.	4a
=89	=89	=89	=89
2D	2g]	1d	2b
1d	2f	.	4a
.	.	.	4g
.	2d	1r	4a
.	.	.	4b
2c	2e	.	[2cc
=90	=90	=90	=90
2A	4f	0r	2cc]
.	4e	.	.
2B	4g	.	4b
.	4f	.	4a
4c	4e	.	2g
4B	4d	.	.
4A	4c	.	[2a
4G	4B	.	.
=91	=91	=91	=91
2F	2A	1r	2a]
2G	1d	.	4g
.	.	.	4f
1A	.	2r	1e
.	2c#	[2a	.
=92	=92	=92	=92
1.d	2d	2a]	2d
.	1f	2a	1dd
.	.	2d	.
2d	2f	[2a	2dd
=93	=93	=93	=93
2A	2e	2a]	2cc
2d	2f	2f	2dd
2c	2e	2g	2ee
2A	2c	[2a	2ee
=94	=94	=94	=94
1B-	1d	4a]	1dd
.	.	4g	.
.	.	2g	.
[1A	1e	1a	2cc#
.	.	.	2ee
=95	=95	=95	=95
1A]	2r	2r	1ee
.	2a	2cc	.
1r	1a	1cc	2a
.	.	.	[2ee
=96	=96	=96	=96
2r	2e	2b	2ee]
2A	2.a	2.cc	2.ff
1A	.	.	.
.	4g	4b	4ee
.	2e	4a	[2ee
.	.	4g	.
=97	=97	=97	=97
2D	2f	2a	2ee]
2.d	2f	2.b-	2dd
.	1e	.	1ee
4c	.	4a	.
4c	.	[2a	.
8B-	.	.	.
8A	.	.	.
=98	=98	=98	=98
2B-	1.d	2a]	1r
2B-	.	2g	.
[1A	.	1a	2r
.	2c	.	2ee
=99	=99	=99	=99
1A]	2c	2r	1ee
.	2a	2cc	.
1r	1a	1cc	2a
.	.	.	2ee
=100	=100	=100	=100
0r	2e	2b	4gg
.	.	.	4ff
.	2.a	2.cc	4ee
.	.	.	4dd
.	.	.	2.ee
.	4g	4b	.
.	2e	[2b	.
.	.	.	4dd
=101	=101	=101	=101
0r	2f	2b]	2cc
.	2f	1a	4b
.	.	.	4a
.	1e	.	2b
.	.	2g	2b
=102	=102	=102	=102
0F	0f	2a	1a
.	.	2.cc	.
.	.	.	2r
.	.	4b	.
.	.	2a	[2cc
=103	=103	=103	=103
1G	2e	1g	2cc]
.	2.d	.	2b-
1A	.	2f	[1a
.	4c#	.	.
.	4c#	2e	.
.	8B	.	.
.	8c#	.	.
=104	=104	=104	=104
2.D	1d	0f	0a]
4E	.	.	.
1F	1c	.	.
=105	=105	=105	=105
0C	2r	1e	2.g
.	2c	.	.
.	.	.	4f
.	1c	2r	4e
.	.	.	4d
.	.	2g	2e
=106	=106	=106	=106
0r	2.G	1g	2d
.	.	.	2dd
.	4A	.	.
.	4B	2d	1dd
.	4c	.	.
.	[2d	[2f	.
=107	=107	=107	=107
0r	4d]	2f]	2a
.	8c	.	.
.	8d	.	.
.	2e	2g	1cc
.	2f	1a	.
.	2f	.	2dd
=108	=108	=108	=108
1r	2e	2g	1ee
.	2c	1cc	.
2r	[1g	.	1dd
2G	.	4b	.
.	.	4a	.
=109	=109	=109	=109
1G	2g]	1b	2r
.	2d	.	2dd
2D	2.f	2a	2dd
[2F	.	[2a	[2cc
.	4e	.	.
=110	=110	=110	=110
2F]	1d	2a]	4cc]
.	.	.	8b
.	.	.	8a
2G	.	1g	2b
1A	1c	.	2cc
.	.	2f#	2cc
=111	=111	=111	=111
1G	2d	2g	1b
.	2e	2g	.
1r	2.f	2.a	2r
.	.	.	2cc
.	4f	4a	.
=112	=112	=112	=112
0r	2f	2a	2.dd
.	1g	1b	.
.	.	.	4dd
.	.	.	2dd
.	2f	2a	[2dd
=113	=113	=113	=113
0r	2g	2b	2dd]
.	2c	2.cc	2ee
.	1g	.	1dd
.	.	4b	.
.	.	2b	.
=114	=114	=114	=114
0r	1c	4a	1cc
.	.	4g	.
.	.	1g	.
.	1d	.	1a
.	.	2f#	.
=115	=115	=115	=115
2r	2.e	1g	2g
2G	.	.	2b
.	4e	.	.
2.A	2e	2r	2.cc
.	[2e	[2c	.
4A	.	.	4a
=116	=116	=116	=116
2A	2e]	2c]	2a
1A	2f	2c	1a
.	2e	2c	.
2B-	[2d	2d	2g
=117	=117	=117	=117
1A	2d]	1e	1a
.	2c#	.	.
2D	2d	2f#	1a
2d	2d	2f#	.
=118	=118	=118	=118
2.c	2.e	2.g	1r
4c	4e	4g	.
2c	2e	2g	1cc
2F	[2f	[2a	.
=119	=119	=119	=119
2D	2f]	2a]	2.dd
2G	2.g	2b	.
.	.	.	4dd
1D	.	1a	2dd
.	8f#	.	.
.	8e	.	.
.	2f#	.	[2dd
=120	=120	=120	=120
2r	2g	2b	2dd]
2C	2g	2cc	2ee
4D	1f	1a	1dd
4E	.	.	.
4F	.	.	.
4G	.	.	.
=121	=121	=121	=121
4A	2e	2r	2cc
4G	.	.	.
4F	2.a	2.cc	4a
4G	.	.	4b
4A	.	.	4cc
4B	4g	4b	4dd
2c	4e	4g	[2ee
.	4f	4a	.
=122	=122	=122	=122
2G	4g	2b-	2ee]
.	4f	.	.
2B-	4e	2g	1dd
.	4d	.	.
[1A	[1e	[1a	.
.	.	.	4cc#
.	.	.	4b
=123	=123	=123	=123
1A]	1e]	1a]	1cc#
[1D	[1d	[1f#	[1dd
=124	=124	=124	=124
1D]	1d]	1f#]	1dd]
==	==	==	==
*-	*-	*-	*-
!!!CDT: 1525/^1526/-1594/2/2
!!!OCY: Italia
!!!AGN: Mass (Paraphrase)
!!!AST: renaissance, vocal
!!!ASW: Prayer
!!!PWK: Masses, Book 10
!!!RNB: Cadence finals: A
!!!YOR: Le Opere Complete, v. 27, p. 199
!!!YOO: Rome, Italy: Fratelli Scalera
!!!END: 1992//
!!!EED: John Miller
!!!YEC: Copyright 2000, John Miller
!!!YEN: United States of America
!!!YEM: Rights to all derivative electronic formats reserved.
!!!YEM: Refer to licensing agreement for further details.
!!!YEM: This file must be accompanied by the licensing agreement.
!!!YEM: A copy of the licensing agreement may be found at http://www.music-cog.ohio-state.edu/HumdrumDatabases/Palestrina/license.txt
!!!EMD: converted to Humdrum by Bret Aarden
